!!!COM: Fux, Johann Joseph
!!!OMD: Gradus ad Parnassum Exercise
!!!YEC: CC0 1.0 Universal (Public Domain). Mark Gotham and FourScoreAndMore.org waive all rights to this document.
**kern	**kern	**kern	**kern
*part4	*part3	*part2	*part1
*staff4	*staff3	*staff2	*staff1
*I"4	*I"3	*I"2	*I"1
*I'Pno	*I'Pno	*I'Pno	*I'Pno
!!LO:LB:g=z
*clefF4	*clefGv2	*clefG2	*clefG2
*k[]	*k[]	*k[]	*k[]
!!LO:TX:omd:t=
*M4/4	*M4/4	*M4/4	*M4/4
=45	=45	=45	=45
!	!	!	!LO:TX:a:t=Fig. 166; Species&colon; 1; Modal final&colon; e; Cantus firmus&colon; 1
1E	1G#X	1B	1e
=46	=46	=46	=46
1F	1A	1A	1c
=47	=47	=47	=47
1D	1F	1A	1d
=48	=48	=48	=48
1AA	1E	1A	1c
=49	=49	=49	=49
1AA	1E	1c	1A
=50	=50	=50	=50
1FF	1F	1c	1a
=51	=51	=51	=51
1EE	1c	1e	1g
=52	=52	=52	=52
1AA	1c	1c	1e
=53	=53	=53	=53
1D	1A	1d	1f
=54	=54	=54	=54
1E	1G#X	1B	1e
==	==	==	==
*-	*-	*-	*-
!!!software: music21 v.9.7.1
!!!software: music21 v.9.7.1
!!!software: MuseScore 3.4.2
!!!RDF**kern: > = above
!!!RDF**kern: < = below
